X:1
T:Loeil dit assez
T:Thomas Crecquillon
T:Source : La fleur des chansons à 3---Louvain---P.Phalèse---1574. Editor: André Vierendeels (20/08/18) Notes : Original clefs : G2, C1, C3 Original note values have been halved Editorial accidentals above the staff
T:Loeil dit assez
T:©
T:©
T:©
C:Thomas Crecquillon
Z:©
%%score [ 1 2 3 ]
L:1/8
Q:1/4=120
M:2/2
K:F
V:1 treble nm="Soprano 1" snm="S 1"
V:2 treble nm="Soprano 2" snm="S 2"
V:3 treble-8 nm="Tenor" snm="T"
V:1
 d4 c2 B2 | A2 G2 B2 c2 | d2 e2 f2 f2 | e2 d2 c2 d2- | d2 c2 B4 | A2 f2 e2 d2 | c2 dd c2 B2 | %7
w: Loeil dit as-|sez s'il es- toit|en- ten- du, loeil|dit as- sez s'il|_ es- toit|en- * ten- du,|s'il es- toit en- ten|
 A4 z2 G2 | B2 c2 d2 d2 | d2 e2 f3 e | d2 c3 BAG | F2 f4 e2 | c2 d4 cB | A2 A2 B2 c2- | cF f4 e2- | %15
w: du, ma|bou- che veut son|se- cret re- *|* ve- * * *|ler, ma bou-|che veut _ _|_ son se- cret|_ re- ve- *|
 e2 d4 c2 | d8 | z8 | z4 z2 d2 | g2 g2 fedc | B2 B2 e2 e2 | dcBA GABc | de f4 e2 | d2 cB c4 | %24
w: |ler,||mais|ce- la n'est, _ _ _|_ par crain- te|de- * * * * * * *||* * * fen-|
 d2 z d ffcc | eegg d2 f2 | f2 e2 d2 c2 | B2 AG A4 | B2 z d ffcc | eegg d2 f2 | f2 e2 d2 c2 | %31
w: du, ne sçau- roit on en-|ten- dre sans par- ler, en-|ten- * dre sans|par- * * *|ler, ne sçau- roit on en-|ten dre sans par- ler, en|ten- * dre sans|
 B2 AG A4 | B8 |] %33
w: par- * * *|ler?|
V:2
 z4 z2 G2 | F2 E2 D2 C2 | F2 G2 A2 B2 | c2 FG AF B2- | B2 A4 G2 | A3 F G2 G2 | A2 B2 A2 G2- | %7
w: Loeil|dit as- sez s'il|es- toit en ten|du, s'il _ _ _ es-|* toit en-|ten- * * ten-|du, s'il es- *|
 G2 F2 B3 A | GF E2 D4 | z4 z2 D2 | F2 G2 A2 A2 | A2 B2 c3 B | AG B4 AG | F2 F4 G2 | A4 F2 G2- | %15
w: * toit en- *|* * ten du,|ma|bou- che veut son|se- cret re- *|* * ve- * *|ler, son se-|cret re- ve-|
 GFFE/D/ E4 | D4 z4 | A4 d2 d2 | cBAG F2 F2 | B2 B2 A2 B2 | G3 F G2 A2 | B6 G2 | B2 AG AB c2- | %23
w: |ler,|mais ce- la|n'est _ _ _ _ par|crain- te de- *|fen- * * *|du, par|crain- te _ _ _ de-|
 cB B4 A2 | BGBB FFAA | ccGG BBFF | A2 c2 B2 A2- | AG G4 F2 | GGBB FFAA | ccGG BBFF | %30
w: * * * fen-|du, ne sçau- roit on en- ten dre|sans par- ler, en- ten- dre sans par-|ler, sans par- *||ler, ne sçau- roit on en- ten dre|sans par- ler, en ten- dre sans par-|
 A2 c2 B2 A2- |"^#" AG G4 F2 | G8 |] %33
w: ler, sans par- *||ler?|
V:3
 z8 | z8 | z4 d4 | c2 B2 A2 G2 | B2 c2 d2 e2 | f2 z d c2 B2 | A2 G2 f2 g2 | d2 d2 G4 | z4 G4 | %9
w: ||Loeil|dit as- sez s'il|es- toit en- ten-|du, loeil dit as-|sez s'il es- toit|en- ten du,|ma|
 B2 c2 d2 d2 | d2 e2 f3 e | d2 d2 c4 | z2 G2 B2 c2 | d2 d2 d2 e2 | f3 e d2 c2 | B4 A4 | %16
w: bou- che veut son|se- cret re- *|* ve- ler,|ma bou- che|veut son se- cret|re- * * ve-|* ler,|
"^b""^b" z2 d2 g2 g2 | fedc B2 d2 | f3 e dcBA |"^b" GABc d2 B2 |"^b" e3 d c2 c2 |"^b" B2 B2 e2 e2 | %22
w: mais ce- la|n'est _ _ _ _ par|crain- te de- * * *||* * * fen-|du, par crain- te|
"^b" d6 e2 | f2 g2 f4 | z4 d2 ff | ccee gg d2 | f2 c2 g2 c2 | d2 e2 d4 | G2 z2 d2 ff | ccee ggdd | %30
w: de- *|* fen- du,|ne sçau- roit|on en ten dre sans par- ler,|_ _ _ _|* * par-|ler, ne sçau- roit|on en- ten- dre sans par- ler, en-|
 ffcc g2 c2 | d2 e2 d4 | G8 |] %33
w: ten- dre sans par- ler, sans|par- * *|ler?|

